X:1
T:Climbing the Golden Stairs
T:Climbing the Golden Stairs
T:George W. & Arthur Bee Sebren
T:George Washington Sebren II, 1905
T:Public Domain Courtesy of the Cyber Hymnal™
T:Public Domain Courtesy of the Cyber Hymnal™
C:George W. & Arthur Bee Sebren
Z:Public Domain
Z:Courtesy of the Cyber Hymnal™
%%score 1 ( 2 3 )
L:1/8
Q:1/4=75
M:4/4
K:Bb
V:1 treble 
V:2 bass 
V:3 bass 
V:1
 [B,D]2 | [DF]>[DF] (3[EG][DA][DB] [Fd]2 [^Fc]2 | [GB]>[Gc] (3[GB][FA][EG] [DF]2 [B,D]2 | %3
w: 1.~There|is a heav- en- ly land, There|is a beau- ti- ful strand, Where|
w: 2.~While|on our pil- grim- age here, We’ll|meet with tri- als se- vere; The|
w: 3.~Come,|let us sing and be glad, No|cause we have to be sad, For|
 [DF]>[DF] (3[EG][DA][DB] [Fd]2 [FB]2 | [Fc]6 [B,D]2 | [DF]>[DF] (3[EG][DA][DB] [Fd]2 [^Fc]2 | %6
w: com- eth no- thing to cause des-|pair; And|with a won- der- ful flight, We’ll|
w: road, it seem- eth, is sown in|tares; Yet,|thro’ God’s won- der- ful love, We’ll|
w: Christ our ev- er- y sor- row|shares; There|with the glor- i- fied throng, We’ll|
 [GB]>[Gc] (3[GB][FA][EG] [DF]2 [B,D]2 | [DF]>[DF] (3[EG][FB][Ge] [Fd]2 [Ec]2 | [DB]6 || %9
w: reach a n- ob- ler height, With|an- gels climb- ing the gold- en|stairs.|
w: reach the ci- ty a- bove, With|an- gels climb- ing the gold- en|stairs.|
w: sing a beau- ti- ful song, With|an- gels climb- ing the gold- en|stairs.|
"^Refrain" [Fd]2 | [Bf]>[Bf] (3[Bd][Fc][FB] [Fd]2 [^Fc]2 | [GB]>[Gc] (3[GB][FA][EG] [DF]2 [B,D]2 | %12
w: |||
w: Be-|hold a beck- on- ing hand, List|to the an- gel- ic band, In|
w: |||
 [DF]>[DF] (3[EG][DA][DB] [Fd]2 [FB]2 | [Fc]6 [Fd]2 | [Bf]>[Bf] (3[Bd][Fc][FB] [Fd]2 [^Fc]2 | %15
w: |||
w: Heav’n we’ll ne- ver know pain nor|care; We’ll|walk the beau- ti- ful street, Blest|
w: |||
 [GB]>[Gc] (3[GB][FA][EG] [DF]2 [B,D]2 | [DF]>[DF] (3[EG][FB][Ge] [Fd]2 [Ec]2 | [DB]6 |] %18
w: |||
w: thought, so won- drous- ly sweet! With|an- gels climb- ing the gold- en|stairs.|
w: |||
V:2
 [B,,F,]2 | [B,,B,]>[B,,B,] (3[B,,B,][B,,B,][B,,B,] [B,,B,]2 [D,B,]2 | %2
 [E,B,]>[E,B,] (3[E,B,][F,B,][G,B,] B,2 [B,,F,]2 | %3
 [B,,B,]>[B,,B,] (3[B,,B,][B,,B,][B,,B,] [B,,B,]2 [D,B,]2 | [F,A,]6 [B,,F,]2 | %5
 [B,,B,]>[B,,B,] (3[B,,B,][B,,B,][B,,B,] [B,,B,]2 [D,B,]2 | %6
 [E,B,]>[E,B,] (3[E,B,][F,B,][G,B,] B,2 [B,,F,]2 | %7
 [B,,B,]>[B,,B,] (3[E,B,][D,B,][C,B,] [F,B,]2 F,2 | [B,,F,]6 || B,2 | %10
 [B,D]>[B,D] (3[B,F][B,E][B,D] B,2 [D,B,]2 | [E,B,]>[E,B,] (3[E,B,][F,B,][G,B,] B,2 [B,,F,]2 | %12
 [B,,B,]>[B,,B,] (3[B,,B,][B,,B,][B,,B,] [B,,B,]2 [D,B,]2 | [F,A,]6 B,2 | %14
 [B,D]>[B,D] (3[B,F][B,E][B,D] B,2 [D,B,]2 | [E,B,]>[E,B,] (3[E,B,][F,B,][G,B,] B,2 [B,,F,]2 | %16
 [B,,B,]>[B,,B,] (3[E,B,][D,B,][C,B,] [F,B,]2 F,2 | [B,,F,]6 |] %18
V:3
 x2 | x8 | x4 B,2 x2 | x8 | x8 | x8 | x4 B,2 x2 | x6 F,2 | x6 || B,2 | x4 B,2 x2 | x4 B,2 x2 | x8 | %13
 x6 B,2 | x4 B,2 x2 | x4 B,2 x2 | x6 F,2 | x6 |] %18

